images/icon-external-link.svg

<svg height="20" viewBox="0 0 21 20" width="21" xmlns="http://www.w3.org/2000/svg"><path d="m.1198802 1.3386614h6.99696658v2.5974026c-1.74924165 0-5.24772494 0-6.99696658 0 0-.64935065 0-1.94805195 0-2.5974026zm0 2.2577422h2.62891812v13.8061938c-.65722953 0-1.97168859 0-2.62891812 0 0-3.4515485 0-10.35464535 0-13.8061938zm0 13.8061938h17.0475228v2.5974026c-4.2618807 0-12.78564209 0-17.0475228 0 0-.6493506 0-1.948052 0-2.5974026zm16.4610719-4.3156844h2.6086957v6.913087c-.652174 0-1.9565218 0-2.6086957 0 0-1.7282717 0-5.1848152 0-6.913087zm-8.71587472-1.7782216c2.26491412-2.5624376 6.79474222-7.6873128 9.05965632-10.2497504.4903943.42457545 1.4711829 1.27372635 1.9615772 1.6983018-2.2548028 2.56243755-6.7644084 7.6873126-9.01921124 10.2497502-.50050557-.4245754-1.50151671-1.2737262-2.00202228-1.6983016zm12.21435792-11.2487514v2.1578422c-2.4115267-.014985-7.2345803-.044955-9.6461071-.05994 0-.53946055 0-1.61838165 0-2.1578422 2.4115268.014985 7.2345804.044955 9.6461071.05994zm-.0202224 9.5104896c-.5460061 0-1.6380182 0-2.1840243 0 .0151669-2.3776224.0455006-7.1328672.0606675-9.5104896h2.1840241c-.0151668 2.3776224-.0455005 7.1328672-.0606673 9.5104896z" fill="#01689b"/></svg>

<?xml version="1.0" encoding="UTF-8"?>
<svg width="21px" height="20px" viewBox="0 0 21 20" version="1.1" xmlns="http://www.w3.org/2000/svg" xmlns:xlink="http://www.w3.org/1999/xlink">
    <!-- Generator: Sketch 46.2 (44496) - http://www.bohemiancoding.com/sketch -->
    <title>icon-external-link</title>
    <desc>Created with Sketch.</desc>
    <defs></defs>
    <g id="Page-1" stroke="none" stroke-width="1" fill="none" fill-rule="evenodd">
        <path d="M0.1198802,1.3386614 C1.86912184,1.3386614 5.36760513,1.3386614 7.11684678,1.3386614 C7.11684678,1.98801205 7.11684678,3.28671335 7.11684678,3.936064 C5.36760513,3.936064 1.86912184,3.936064 0.1198802,3.936064 C0.1198802,3.28671335 0.1198802,1.98801205 0.1198802,1.3386614 Z M0.1198802,3.5964036 C0.777109731,3.5964036 2.09156879,3.5964036 2.74879832,3.5964036 C2.74879832,7.04795205 2.74879832,13.9510489 2.74879832,17.4025974 C2.09156879,17.4025974 0.777109731,17.4025974 0.1198802,17.4025974 C0.1198802,13.9510489 0.1198802,7.04795205 0.1198802,3.5964036 Z M0.1198802,17.4025974 C4.38176091,17.4025974 12.9055223,17.4025974 17.167403,17.4025974 C17.167403,18.051948 17.167403,19.3506494 17.167403,20 C12.9055223,20 4.38176091,20 0.1198802,20 C0.1198802,19.3506494 0.1198802,18.051948 0.1198802,17.4025974 L0.1198802,17.4025974 Z M16.5809521,13.086913 C17.233126,13.086913 18.5374738,13.086913 19.1896478,13.086913 C19.1896478,14.8151848 19.1896478,18.2717283 19.1896478,20 C18.5374738,20 17.233126,20 16.5809521,20 C16.5809521,18.2717283 16.5809521,14.8151848 16.5809521,13.086913 L16.5809521,13.086913 Z M7.86507738,11.3086914 C10.1299915,8.7462538 14.6598196,3.6213786 16.9247337,1.058941 C17.415128,1.48351645 18.3959166,2.33266735 18.8863109,2.7572428 C16.6315081,5.31968035 12.1219025,10.4445554 9.86709966,13.006993 C9.36659409,12.5824176 8.36558295,11.7332668 7.86507738,11.3086914 L7.86507738,11.3086914 Z M20.0794353,0.05994 C20.0794353,0.59940055 20.0794353,1.67832165 20.0794353,2.2177822 C17.6679086,2.2027972 12.844855,2.1728272 10.4333282,2.1578422 C10.4333282,1.61838165 10.4333282,0.53946055 10.4333282,0 C12.844855,0.014985 17.6679086,0.044955 20.0794353,0.05994 L20.0794353,0.05994 Z M20.0592129,9.5704296 C19.5132068,9.5704296 18.4211947,9.5704296 17.8751886,9.5704296 C17.8903555,7.1928072 17.9206892,2.4375624 17.9358561,0.05994 C18.4818621,0.05994 19.5738742,0.05994 20.1198802,0.05994 C20.1047134,2.4375624 20.0743797,7.1928072 20.0592129,9.5704296 L20.0592129,9.5704296 Z" id="icon-external-link" fill="#01689B" fill-rule="nonzero"></path>
    </g>
</svg>
